X:473
T:Lovat Scouts, The 
C:Joe Buchanan's Scottish Tome - Page 105.0
I:105 0
C:J. S. Skinner
R:Polka
Z:Carl Allison
L:1/16
M:2/4
K:A
A<A | (.A2.c2) e2A<A | (.d2.f2) (a2gf) | {f/}([ee]2>c2) .A2.c2 | (B6 B4) A<A |
(.A2.c2) e2A<A | (d2f2) (a2gf) | {f/}([ee]2>c2) {c/}.d2.B2 | {B/}[AA]4 [AA]2 :|
e<e | {g/}a3A2 c2e2 | f2{a/}d2 d2f2 | {f/}([ee]2>c2) .A2.c2 | {c/}B4 B2 e<e |
{g/}a2A2 c2e2 | f2a2 d2f2 | {f/}([ee]2>c2) {c/}(d2B2) | {B/}A4 A4 e<e |
{e/} a2A2 c2e2 | f2a2 d2f2 | {f/}([ee]2>c2) A2c2 | {c/}B4- B4 (ec) |
(ABcd) (e2cA) | .d.e.f.g {g}a2gf | {f/}e2>c2 {c}d2B2 | {B/}A4 A4 |]
(ee) | A<AcA eAcA | d<dfd a2gf | .e(ag)a ecAc | {c/}B4 B2 ec |
A<AcA eAcA | defg a2gf |{f/}[ee]2>c2  {B/}d2B2 | {B/}A4 [EA]2 :|
((3efg)| aAce agfe | fgaf defd | efga ecAc | {c/}B4- B2 ((3efg) |
aAce agfe | fgaf defd | efga ecdB | {B/}A4 A4 ((3efg) |
aAce agfe | fgaf defd | efga ecAc | {c/}(B4 B4) ec |
ABcd eAcA | defg a2gf | {f/}[ee]2>c2 {c/}d2B2 | {B/}[AA]4 [AA]2 |]

